material/.icons/material/mailbox.svg

<svg xmlns="http://www.w3.org/2000/svg" viewBox="0 0 24 24"><path d="M17 4H7a5 5 0 00-5 5v11h18a2 2 0 002-2V9a5 5 0 00-5-5m-7 14H4V9a3 3 0 013-3 3 3 0 013 3v9m9-3h-2v-2h-4v-2h6v4M9 11H5V9h4v2z"/></svg>

<?xml version="1.0" encoding="UTF-8"?><!DOCTYPE svg PUBLIC "-//W3C//DTD SVG 1.1//EN" "http://www.w3.org/Graphics/SVG/1.1/DTD/svg11.dtd"><svg xmlns="http://www.w3.org/2000/svg" xmlns:xlink="http://www.w3.org/1999/xlink" version="1.1" id="mdi-mailbox" width="24" height="24" viewBox="0 0 24 24"><path d="M17,4H7A5,5 0 0,0 2,9V20H20A2,2 0 0,0 22,18V9A5,5 0 0,0 17,4M10,18H4V9A3,3 0 0,1 7,6A3,3 0 0,1 10,9V18M19,15H17V13H13V11H19V15M9,11H5V9H9V11Z" /></svg>
